SharedPackages/Infrastructure/DesignResourcesKitIcons/Sources/DesignResourcesKitIcons/DesignSystemImages.xcassets/Color/16px/Rocket-Color-16.imageset/Rocket-Color-16.svg

<svg width="16" height="16" viewBox="0 0 16 16" fill="none" xmlns="http://www.w3.org/2000/svg">
<g clip-path="url(#clip0_13193_106810)">
<path d="M2 10.5C2 10.5 0.625002 13.75 0.625002 15.375C2.25 15.375 5.5 14 5.5 14L2 10.5Z" fill="#FFC95C"/>
<path d="M1 6.5L0.75 7.5L2.5 9L2.25 10.5L5.75 14L6.75 13.75L8.5 15.5L9.75 15L10.5 11.5L14 6.5L15.5 1.75L14.5 0.75L8.75 2.25L4.75 5.5L1 6.5Z" fill="#F05F2B"/>
<path d="M11 1.5L6 4L2.5 9L2.25 10.5L5.75 14L6.75 13.75L12 10L14.5 5L11 1.5Z" fill="#F5F5F5"/>
<path d="M10.4993 11.5C10.9584 11.5306 10.9954 11.5329 10.9983 11.5332L10.9988 11.5337L10.9983 11.5342C10.9983 11.5347 10.9983 11.5356 10.9983 11.5361C10.9982 11.5373 10.9979 11.5387 10.9978 11.5405C10.9975 11.5446 10.9974 11.5505 10.9968 11.5576C10.9957 11.5721 10.9943 11.5929 10.9919 11.6191C10.9873 11.672 10.9794 11.7484 10.9685 11.8442C10.9468 12.0359 10.9112 12.3078 10.8542 12.6323C10.7407 13.2793 10.5413 14.1481 10.197 15.0181C9.97537 15.5781 9.49611 15.8971 8.97876 15.9546C8.47084 16.0109 7.93678 15.8168 7.55933 15.3975L6.37769 14.0845L7.12134 13.4155L8.30347 14.7285C8.46907 14.9123 8.68605 14.981 8.86792 14.9609C9.04035 14.9418 9.1902 14.8451 9.26733 14.6504C9.57859 13.8639 9.76306 13.0655 9.86939 12.4595C9.92231 12.1578 9.95558 11.9065 9.97534 11.7319C9.98522 11.6447 9.99185 11.5766 9.99585 11.5312C9.99784 11.5088 9.99892 11.4919 9.99976 11.481C10.0002 11.4756 10.0006 11.4716 10.0007 11.4692V11.4668L10.4993 11.5ZM4.46655 5.00146L4.53296 5.99854L4.53052 5.99902C4.52815 5.99919 4.52419 5.99958 4.5188 6C4.50793 6.00084 4.49101 6.00192 4.46851 6.00391C4.4232 6.00791 4.35506 6.01454 4.26782 6.02441C4.09325 6.04417 3.842 6.07744 3.54028 6.13037C2.93431 6.23669 2.13584 6.42116 1.34937 6.73242C1.15473 6.80953 1.0575 6.959 1.03833 7.13135C1.01822 7.31328 1.08728 7.53063 1.27124 7.69629L2.58423 8.87842L1.91528 9.62207L0.602296 8.43994C0.182909 8.06249 -0.0116518 7.52891 0.0446791 7.021C0.102112 6.50359 0.421594 6.02441 0.981691 5.80273C1.85162 5.45845 2.72051 5.25852 3.36743 5.14502C3.69202 5.08808 3.96383 5.05246 4.15552 5.03076C4.25122 5.01993 4.32726 5.01249 4.38013 5.00781C4.40639 5.00549 4.4272 5.00404 4.44165 5.00293C4.44889 5.00237 4.45514 5.00176 4.45923 5.00146H4.46558L4.46607 5.00098L4.46655 5.00146Z" fill="#9A3216"/>
<path d="M1.34044 12.2313L0.934753 12.0128C1.06571 11.7697 1.36907 11.6789 1.61217 11.8098C1.85511 11.9407 1.9462 12.2438 1.81553 12.4868L1.81415 12.4889C1.81301 12.491 1.81124 12.4949 1.80862 12.5C1.80331 12.5101 1.79482 12.5259 1.78411 12.5473C1.76248 12.5903 1.73072 12.6552 1.69227 12.7385C1.61517 12.9056 1.51162 13.1459 1.40811 13.4342C1.24947 13.8762 1.09708 14.4145 1.03246 14.9672C1.58525 14.9026 2.12346 14.7502 2.56545 14.5916C2.85382 14.4881 3.09409 14.3845 3.26116 14.3074C3.34451 14.269 3.40938 14.2372 3.45244 14.2156C3.47382 14.2048 3.48988 14.1967 3.50009 14.1914C3.50512 14.1888 3.509 14.187 3.51114 14.1859L3.51321 14.1845C3.75628 14.0538 4.05941 14.1449 4.19028 14.3879C4.32117 14.631 4.23028 14.9343 3.98726 15.0653L3.76456 14.652L3.98657 15.0653L3.98588 15.066C3.98549 15.0662 3.98502 15.0664 3.9845 15.0667C3.98323 15.0673 3.98136 15.068 3.97932 15.0691C3.97519 15.0713 3.96959 15.0747 3.9624 15.0784C3.94803 15.0859 3.92765 15.0964 3.90163 15.1095C3.84953 15.1357 3.77456 15.172 3.68032 15.2155C3.49197 15.3024 3.22434 15.4179 2.90347 15.5331C2.26815 15.7612 1.39366 15.9999 0.499717 15.9999C0.240938 15.9998 0.0281169 15.8031 0.00253232 15.5511L-0.000229811 15.5C-0.000229474 14.606 0.238854 13.7319 0.466916 13.0966C0.582116 12.7757 0.697628 12.5081 0.784562 12.3197C0.82807 12.2255 0.86437 12.1505 0.890559 12.0984C0.903631 12.0724 0.914144 12.052 0.921633 12.0376C0.92538 12.0304 0.928425 12.0245 0.93061 12.0204C0.93167 12.0184 0.932705 12.0168 0.933372 12.0155C0.93365 12.015 0.933855 12.0145 0.934063 12.0142L0.934408 12.0131C0.934461 12.013 0.934753 12.0129 1.34044 12.2313ZM3.74108 14.6085C3.744 14.6139 3.74706 14.6195 3.75006 14.6251L3.76456 14.652L3.74108 14.6085ZM1.37497 12.25L1.34044 12.2313C1.35165 12.2374 1.36314 12.2436 1.37497 12.25Z" fill="#B66A1F"/>
<path d="M14.2984 0.0552061C15.2382 -0.0172149 16.0171 0.762826 15.9454 1.70218L15.9175 2.03177C15.2909 8.68658 11.3171 12.3552 6.75689 14.1153L6.3062 14.2823C5.76479 14.4748 5.17533 14.3226 4.78228 13.9297L2.12065 11.2681C1.75204 10.8995 1.59516 10.3581 1.7354 9.84573L1.76714 9.74368C3.47875 4.92308 7.21369 0.601537 14.2984 0.0552061ZM14.3755 1.05228C7.7719 1.56151 4.32129 5.54059 2.71001 10.0786L2.69292 10.1397C2.66439 10.2852 2.7108 10.4442 2.82769 10.5611L5.48931 13.2227C5.62294 13.3562 5.81109 13.3969 5.97124 13.3399C10.4309 11.7522 14.32 8.34604 14.9224 1.93314L14.9488 1.62552C14.9738 1.29719 14.7034 1.02719 14.3755 1.05228Z" fill="#686868"/>
<path d="M14.2983 0.055439C15.238 -0.0168701 16.0175 0.762673 15.9458 1.70192L15.9175 2.03151C15.7925 3.35843 15.5333 4.56628 15.1641 5.66433L14.3667 4.86696C14.6328 3.96727 14.823 2.99141 14.9224 1.93337L14.9487 1.62575C14.9738 1.29742 14.7033 1.02706 14.3755 1.05202C13.1988 1.14276 12.1221 1.34383 11.1382 1.63845L10.3423 0.842548C11.527 0.439685 12.842 0.167742 14.2983 0.055439Z" fill="#9E2B08"/>
<path d="M10 7.5C9.17157 7.5 8.5 6.82843 8.5 6C8.5 5.17157 9.17157 4.5 10 4.5C10.8284 4.5 11.5 5.17157 11.5 6C11.5 6.82843 10.8284 7.5 10 7.5Z" fill="#A1D0F7"/>
<path d="M9.99072 6.73193C10.3998 6.73187 10.7314 6.39984 10.7314 5.99072C10.7314 5.58166 10.3998 5.25007 9.99072 5.25C9.58161 5.25 9.24958 5.58162 9.24951 5.99072L7.99951 5.99072L8.00244 5.88818C8.05415 4.8703 8.87027 4.05402 9.88818 4.00244L9.99072 4C11.0901 4.00007 11.9814 4.89131 11.9814 5.99072L11.979 6.09326C11.9257 7.14514 11.0558 7.98187 9.99072 7.98193L9.88818 7.979C8.83626 7.9257 7.99951 7.05589 7.99951 5.99072L9.24951 5.99072C9.24951 6.39988 9.58156 6.73193 9.99072 6.73193Z" fill="#1074CC"/>
</g>
<defs>
<clipPath id="clip0_13193_106810">
<rect width="16" height="16" fill="white"/>
</clipPath>
</defs>
</svg>

<svg fill="none" viewBox="0 0 16 16" xmlns="http://www.w3.org/2000/svg">
  <g clip-path="url(#Rocket-Color-16_svg__a)">
    <path fill="#FC3" d="M2 10.5S.625 13.75.625 15.375C2.25 15.375 5.5 14 5.5 14L2 10.5Z"/>
    <path fill="#DE5833" d="m1 6.5-.25 1L2.5 9l-.25 1.5 3.5 3.5 1-.25L8.5 15.5l1.25-.5.75-3.5 3.5-5 1.5-4.75-1-1-5.75 1.5-4 3.25L1 6.5Z"/>
    <path fill="#F5F5F5" d="M11 1.5 6 4 2.5 9l-.25 1.5 3.5 3.5 1-.25L12 10l2.5-5L11 1.5Z"/>
    <path fill="#9A3216" d="m10.5 11.5.498.033v.008l-.001.017-.005.061-.024.225a13.1 13.1 0 0 1-.114.788 12.445 12.445 0 0 1-.657 2.386c-.222.56-.7.88-1.218.937a1.671 1.671 0 0 1-1.42-.557l-1.181-1.313.743-.67 1.182 1.314a.671.671 0 0 0 .565.232.469.469 0 0 0 .4-.31c.31-.787.495-1.585.601-2.191a12.211 12.211 0 0 0 .127-.929l.004-.05v-.014l.5.033ZM4.466 5.001 4.533 6h-.014l-.05.004a12.21 12.21 0 0 0-.928.126 11.52 11.52 0 0 0-2.192.602.47.47 0 0 0-.31.4.67.67 0 0 0 .232.564l1.313 1.182-.669.744L.602 8.44a1.67 1.67 0 0 1-.557-1.42c.057-.517.377-.997.937-1.218.87-.345 1.739-.544 2.385-.658a13.155 13.155 0 0 1 1.013-.137l.062-.005L4.459 5h.007Z"/>
    <path fill="#C18010" d="m1.34 12.231-.405-.218a.5.5 0 0 1 .88.474v.002l-.006.011-.025.047a8.678 8.678 0 0 0-.376.887c-.159.442-.31.98-.376 1.533a7.068 7.068 0 0 0 1.533-.375 8.657 8.657 0 0 0 .887-.376l.048-.025.011-.005.002-.002a.5.5 0 0 1 .474.881l-.222-.413.222.413-.001.001h-.002l-.005.003-.017.01a4.722 4.722 0 0 1-.282.136 9.667 9.667 0 0 1-.777.318C2.268 15.761 1.393 16 .5 16a.5.5 0 0 1-.497-.449L0 15.5c0-.894.239-1.768.467-2.403a9.658 9.658 0 0 1 .455-1.06l.009-.017.002-.005h.001v-.002l.406.218Zm2.401 2.377.01.017.014.027-.024-.043ZM1.375 12.25l-.035-.019.035.019Z"/>
    <path fill="url(#Rocket-Color-16_svg__b)" d="M14.298.055a1.532 1.532 0 0 1 1.647 1.647l-.027.33c-.627 6.655-4.6 10.323-9.161 12.083l-.45.167a1.466 1.466 0 0 1-1.525-.352l-2.661-2.662a1.468 1.468 0 0 1-.386-1.422l.032-.102C3.48 4.924 7.214.602 14.298.055Zm.078.997C7.772 1.562 4.32 5.541 2.71 10.08l-.017.06a.47.47 0 0 0 .135.422l2.661 2.662a.464.464 0 0 0 .482.117c4.46-1.588 8.349-4.994 8.951-11.407l.027-.307a.532.532 0 0 0-.573-.574Z"/>
    <path fill="url(#Rocket-Color-16_svg__c)" d="M14.298.055c.94-.072 1.72.708 1.648 1.647l-.028.33a16.1 16.1 0 0 1-.754 3.632l-.797-.797c.266-.9.456-1.876.555-2.934l.027-.307a.533.533 0 0 0-.573-.574 15.38 15.38 0 0 0-3.238.586l-.796-.795c1.185-.403 2.5-.675 3.956-.788Z"/>
    <path fill="#8FABF9" d="M10 7.5a1.5 1.5 0 1 1 0-3 1.5 1.5 0 0 1 0 3Z"/>
    <path fill="url(#Rocket-Color-16_svg__d)" d="M9.99 6.732a.741.741 0 1 0-.74-.741H8l.002-.103a1.991 1.991 0 0 1 1.886-1.886L9.991 4c1.1 0 1.99.891 1.99 1.99l-.002.103a1.991 1.991 0 0 1-1.988 1.889l-.103-.003A1.991 1.991 0 0 1 8 5.991h1.25c0 .409.332.74.74.74Z"/>
  </g>
  <defs>
    <linearGradient id="Rocket-Color-16_svg__b" x1="8.817" x2="8.817" y1=".051" y2="14.365" gradientUnits="userSpaceOnUse">
      <stop stop-color="#AAA"/>
      <stop offset="1" stop-color="#666"/>
    </linearGradient>
    <linearGradient id="Rocket-Color-16_svg__c" x1="8.817" x2="8.817" y1=".051" y2="14.364" gradientUnits="userSpaceOnUse">
      <stop stop-color="#BC4726"/>
      <stop offset="1" stop-color="#77230C"/>
    </linearGradient>
    <linearGradient id="Rocket-Color-16_svg__d" x1="9.991" x2="9.991" y1="4" y2="7.982" gradientUnits="userSpaceOnUse">
      <stop stop-color="#2B55CA"/>
      <stop offset="1" stop-color="#3969EF"/>
    </linearGradient>
    <clipPath id="Rocket-Color-16_svg__a">
      <path fill="#fff" d="M0 0h16v16H0z"/>
    </clipPath>
  </defs>
</svg>
